kiosk-igrinskij/images/05d64a2eb108fab440f6dc74ff0775a4.svg

<svg fill="none" height="16" viewBox="0 0 12 16" width="12" xmlns="http://www.w3.org/2000/svg"><path d="m3.1774 15.979c.18753.0831.38534-.0969.27053-.2458-.62318-.8083-1.2133-2.1685-.2731-3.9203 1.5679-2.92123 2.52197-4.43422 2.52197-4.43422s.50746 1.76565 1.88307 3.33552c1.32394 1.511 2.04861 3.4112.88035 4.9943-.10964.1485.08369.3238.26999.2444 1.44609-.6165 3.06809-1.8532 3.25109-4.3142.0675-.752-.0337-1.8048-.5397-3.13335-.6506-1.68382-1.45049-2.46952-1.91329-2.80693-.13843-.10094-.35372-.01148-.34236.14152.13485 1.81683-.68527 2.27788-1.15207 1.23885-.18643-.41501-.29516-1.13281-.29516-2.00696 0-1.45529-.50661-2.95338-1.62352-4.170741-.29045-.316576-.6303-.612393-1.02022-.8646539-.14116-.0913464-.34579.0004706-.33286.1490199.08576.986565.00806 3.813985-2.96829 7.191865-2.698676 3.13338-1.652948 5.53978-1.28188 6.19158.70945 1.2486 1.69903 1.9818 2.66545 2.4101z" fill="#f1e9dd"/></svg>

<svg width="12" height="16" viewBox="0 0 12 16" fill="none" xmlns="http://www.w3.org/2000/svg">
<path d="M3.1774 15.979C3.36493 16.0621 3.56274 15.8821 3.44793 15.7332C2.82475 14.9249 2.23463 13.5647 3.17483 11.8129C4.74273 8.89167 5.6968 7.37868 5.6968 7.37868C5.6968 7.37868 6.20426 9.14433 7.57987 10.7142C8.90381 12.2252 9.62848 14.1254 8.46022 15.7085C8.35058 15.857 8.54391 16.0323 8.73021 15.9529C10.1763 15.3364 11.7983 14.0997 11.9813 11.6387C12.0488 10.8867 11.9476 9.8339 11.4416 8.50535C10.791 6.82153 9.99111 6.03583 9.52831 5.69842C9.38988 5.59748 9.17459 5.68694 9.18595 5.83994C9.3208 7.65677 8.50068 8.11782 8.03388 7.07879C7.84745 6.66378 7.73872 5.94598 7.73872 5.07183C7.73872 3.61654 7.23211 2.11845 6.1152 0.901089C5.82475 0.584513 5.4849 0.288696 5.09498 0.0364351C4.95382 -0.0549113 4.74919 0.0369057 4.76212 0.185455C4.84788 1.17202 4.77018 3.99944 1.79383 7.37732C-0.904846 10.5107 0.140882 12.9171 0.51195 13.5689C1.2214 14.8175 2.21098 15.5507 3.1774 15.979Z" fill="#F1E9DD"/>
</svg>
